X:20
T:Gilbert's Corner
C: Taz Tarry 7 Feb 1987
M:4/4
L:1/8
K:G
Q:1/4=150
d2 BG ECEG|c2 BA BcBA|c2 AF DF A2| ABcA GFED|
d2 BG ECEG|c2 BA BcBA|B2 AG FG AB|DEFA (G2 G2):|
GECE GECE|cBAG FGAB|cAFA A2 e2|efge dcBA|
GECE GECE|cBcd ef g2|efge dcBA|G2 B2 (G2 G2) :|

